src/assets/images/tech/python.svg

<svg width="32" height="32" viewBox="0 0 32 32" fill="none" xmlns="http://www.w3.org/2000/svg">
<g id="python">
<g id="python_2">
<path id="Vector" d="M15.8847 0C7.76111 0 8.26833 3.54129 8.26833 3.54129L8.27735 7.21017H16.0296V8.31166H5.1983C5.1983 8.31166 0 7.71904 0 15.9585C0 24.1983 4.5372 23.906 4.5372 23.906H7.24498V20.0825C7.24498 20.0825 7.09901 15.5216 11.7098 15.5216H19.3986C19.3986 15.5216 23.7184 15.5917 23.7184 11.3248V4.2697C23.7184 4.2697 24.3744 0 15.8847 0ZM11.6101 2.46725C11.7933 2.46708 11.9748 2.50323 12.144 2.57363C12.3133 2.64402 12.4671 2.74728 12.5967 2.87749C12.7262 3.0077 12.8289 3.16231 12.8989 3.33247C12.969 3.50263 13.0049 3.68501 13.0048 3.86915C13.0049 4.0533 12.969 4.23567 12.8989 4.40584C12.8289 4.576 12.7262 4.73061 12.5967 4.86082C12.4671 4.99103 12.3133 5.09429 12.144 5.16468C11.9748 5.23508 11.7933 5.27122 11.6101 5.27106C11.427 5.27122 11.2455 5.23508 11.0763 5.16468C10.907 5.09429 10.7532 4.99103 10.6236 4.86082C10.4941 4.73061 10.3914 4.576 10.3214 4.40584C10.2513 4.23567 10.2154 4.0533 10.2155 3.86915C10.2154 3.68501 10.2513 3.50263 10.3214 3.33247C10.3914 3.16231 10.4941 3.0077 10.6236 2.87749C10.7532 2.74728 10.907 2.64402 11.0763 2.57363C11.2455 2.50323 11.427 2.46708 11.6101 2.46725Z" fill="url(#paint0_linear_1009_4630)"/>
<path id="Vector_2" d="M16.1151 31.9992C24.2387 31.9992 23.7314 28.4579 23.7314 28.4579L23.7224 24.7891H15.9701V23.6876H26.8014C26.8014 23.6876 31.9996 24.2803 31.9996 16.0405C31.9996 7.80086 27.4625 8.09308 27.4625 8.09308H24.7547V11.9165C24.7547 11.9165 24.9006 16.4774 20.2899 16.4774H12.6011C12.6011 16.4774 8.28128 16.4073 8.28128 20.6743V27.7296C8.28128 27.7296 7.62532 31.9992 16.1149 31.9992H16.1151ZM20.3896 29.5322C20.2064 29.5323 20.025 29.4962 19.8557 29.4258C19.6865 29.3554 19.5327 29.2521 19.4031 29.1219C19.2736 28.9917 19.1709 28.8371 19.1008 28.6669C19.0308 28.4968 18.9948 28.3144 18.995 28.1303C18.9948 27.9461 19.0308 27.7637 19.1008 27.5935C19.1708 27.4234 19.2735 27.2687 19.4031 27.1385C19.5326 27.0083 19.6864 26.905 19.8557 26.8346C20.025 26.7642 20.2064 26.7281 20.3896 26.7282C20.5728 26.7281 20.7542 26.7642 20.9235 26.8346C21.0928 26.905 21.2466 27.0083 21.3761 27.1385C21.5057 27.2687 21.6084 27.4233 21.6784 27.5935C21.7485 27.7636 21.7844 27.946 21.7842 28.1301C21.7844 28.3143 21.7485 28.4967 21.6784 28.6668C21.6084 28.837 21.5057 28.9916 21.3761 29.1218C21.2466 29.252 21.0928 29.3553 20.9235 29.4257C20.7542 29.4961 20.5728 29.5322 20.3896 29.532V29.5322Z" fill="url(#paint1_linear_1009_4630)"/>
</g>
</g>
<defs>
<linearGradient id="paint0_linear_1009_4630" x1="3.07519" y1="2.8782" x2="19.0152" y2="18.5772" gradientUnits="userSpaceOnUse">
<stop stop-color="#387EB8"/>
<stop offset="1" stop-color="#366994"/>
</linearGradient>
<linearGradient id="paint1_linear_1009_4630" x1="12.8086" y1="13.0117" x2="29.9223" y2="29.1057" gradientUnits="userSpaceOnUse">
<stop stop-color="#FFE052"/>
<stop offset="1" stop-color="#FFC331"/>
</linearGradient>
</defs>
</svg>

<svg xmlns="http://www.w3.org/2000/svg" width="32" height="32" fill="none"><path fill="url(#a)" d="M15.885 0C7.76 0 8.268 3.541 8.268 3.541l.01 3.67h7.752v1.1H5.198S0 7.72 0 15.96s4.537 7.947 4.537 7.947h2.708v-3.823s-.146-4.561 4.465-4.561h7.689s4.32.07 4.32-4.197V4.27S24.373 0 15.884 0M11.61 2.467a1.39 1.39 0 0 1 1.289.865 1.407 1.407 0 0 1-.755 1.833 1.39 1.39 0 0 1-1.52-.304 1.4 1.4 0 0 1-.409-.992 1.41 1.41 0 0 1 .861-1.295c.17-.07.351-.107.534-.107"/><path fill="url(#b)" d="M16.115 32c8.124 0 7.616-3.542 7.616-3.542l-.009-3.669H15.97v-1.101h10.831S32 24.28 32 16.04s-4.538-7.948-4.538-7.948h-2.707v3.823s.146 4.561-4.465 4.561H12.6s-4.32-.07-4.32 4.197v7.056S7.625 32 16.115 32m4.275-2.468a1.39 1.39 0 0 1-1.29-.865 1.406 1.406 0 0 1 .756-1.832 1.39 1.39 0 0 1 1.52.303 1.4 1.4 0 0 1 .408.992 1.41 1.41 0 0 1-.86 1.296c-.17.07-.351.106-.534.106"/><defs><linearGradient id="a" x1="3.075" x2="19.015" y1="2.878" y2="18.577" gradientUnits="userSpaceOnUse"><stop stop-color="#387EB8"/><stop offset="1" stop-color="#366994"/></linearGradient><linearGradient id="b" x1="12.809" x2="29.922" y1="13.012" y2="29.106" gradientUnits="userSpaceOnUse"><stop stop-color="#FFE052"/><stop offset="1" stop-color="#FFC331"/></linearGradient></defs></svg>
